X: 36230
T: Scully Casey's
R: jig
M: 6/8
K: Dmixolydian
|cBc A2G|EcB c2e|dcA AGE|^cde ged|
cBc A2G|EcB c2e|dcA AGE|EDD D2|
cBc A2G|FGA ^cde|dcA AGE|^cde ged|
cBc A2G|FGA ^cde|dcA AGE|EDD D2||
|:efg ged|^cAB =c2d|eaa age|ed^c d3|
efg ged|^cAB =c2e|dB^c AGE|EDD D2:|

